packages/web-icons/svgs/minion_pro_1.svg

<svg viewBox="0 0 22 41" xmlns="http://www.w3.org/2000/svg" class="ridi_icon"><path d="M21.1.4C16.6 2 11.8 3.1 7.7 3.7l-.5 1.8h2c3.4.1 3.9.6 3.2 4.5L8 32.2c-1.1 5.1-1.5 5.6-6.8 6l-.5 1.9h18.6l.4-1.9c-5.7-.5-6-1.1-5.1-6L21.1.4z"/></svg>

<?xml version="1.0" encoding="UTF-8"?>
<svg width="22px" height="41px" viewBox="0 0 22 41" version="1.1" xmlns="http://www.w3.org/2000/svg">
  <!-- Generator: Sketch 41.2 (35397) - http://www.bohemiancoding.com/sketch -->
  <title>minion_pro_1</title>
  <desc>Created with Sketch.</desc>
  <defs></defs>
  <g id="Page-1" stroke="none" stroke-width="1" fill="none" fill-rule="evenodd">
    <g id="minion_pro_1" fill="#000000">
      <g id="레이어_1">
        <path d="M21.1,0.4 C16.6,2 11.8,3.1 7.7,3.7 L7.2,5.5 L9.2,5.5 C12.6,5.6 13.1,6.1 12.4,10 L8,32.2 C6.9,37.3 6.5,37.8 1.2,38.2 L0.7,40.1 L19.3,40.1 L19.7,38.2 C14,37.7 13.7,37.1 14.6,32.2 L21.1,0.4 L21.1,0.4 Z" id="Shape"></path>
      </g>
    </g>
  </g>
</svg>
